assets/icons/question-filled.svg

<?xml version="1.0" encoding="UTF-8" standalone="no"?>
<svg viewBox="0 0 24 24" height="24" width="24" version="1.1" id="svg8" sodipodi:docname="question-filled.svg" inkscape:version="1.1 (ce6663b3b7, 2021-05-25)"
   xmlns:inkscape="http://www.inkscape.org/namespaces/inkscape"
   xmlns:sodipodi="http://sodipodi.sourceforge.net/DTD/sodipodi-0.dtd"
   xmlns="http://www.w3.org/2000/svg"
   xmlns:svg="http://www.w3.org/2000/svg">
   <defs id="defs12" />
   <sodipodi:namedview id="namedview10" pagecolor="#ffffff" bordercolor="#666666" borderopacity="1.0" inkscape:pageshadow="2" inkscape:pageopacity="0.0" inkscape:pagecheckerboard="0" showgrid="false" width="24px" inkscape:zoom="28" inkscape:cx="7.1964286" inkscape:cy="10.553571" inkscape:window-width="1920" inkscape:window-height="1016" inkscape:window-x="0" inkscape:window-y="27" inkscape:window-maximized="1" inkscape:current-layer="svg8">
      <inkscape:grid type="xygrid" id="grid823" />
   </sodipodi:namedview>
   <path id="path2" style="fill:#808080;stroke-width:1" d="M 12 2 C 6.4771525 2 2 6.4771525 2 12 C 2 17.522847 6.4771525 22 12 22 C 17.522847 22 22 17.522847 22 12 C 22 6.4771525 17.522847 2 12 2 z M 12.28125 5.75 C 12.94 5.75 13.471797 5.8439844 13.873047 6.0214844 L 13.875 6.0234375 L 13.878906 6.0234375 A 2.70125 2.70125 0 0 1 14.876953 6.6816406 A 2.12875 2.12875 0 0 1 15.376953 7.5820312 L 15.376953 7.5839844 L 15.376953 7.5878906 C 15.480703 7.9191406 15.53125 8.2353125 15.53125 8.5390625 C 15.53125 8.9240625 15.458203 9.2644531 15.314453 9.5644531 C 15.165703 9.8607031 14.983125 10.140547 14.765625 10.404297 C 14.545625 10.669297 14.302656 10.925469 14.035156 11.167969 C 13.761406 11.417969 13.510703 11.680078 13.283203 11.955078 L 13.283203 11.957031 C 13.051953 12.224531 12.858672 12.522656 12.701172 12.847656 C 12.539922 13.171406 12.460938 13.539609 12.460938 13.943359 L 12.460938 14.136719 C 12.460938 14.161719 12.466797 14.182031 12.466797 14.207031 L 11.333984 14.207031 C 11.300234 14.008281 11.275391 13.805391 11.275391 13.587891 C 11.275391 13.226641 11.337734 12.903984 11.458984 12.615234 C 11.596484 12.318984 11.765703 12.046875 11.970703 11.796875 L 11.972656 11.792969 C 12.181406 11.526719 12.399609 11.284453 12.630859 11.064453 L 12.632812 11.064453 C 12.870312 10.828203 13.096094 10.591016 13.308594 10.353516 C 13.526094 10.111016 13.702891 9.8553906 13.837891 9.5878906 C 13.987891 9.3103906 14.064453 9.0073438 14.064453 8.6835938 C 14.064453 8.1623437 13.890781 7.7239844 13.550781 7.3964844 C 13.204531 7.0502344 12.702813 6.8828125 12.070312 6.8828125 C 11.317813 6.8828125 10.584687 7.0815625 9.8671875 7.4453125 L 9.4921875 6.40625 C 9.8596875 6.22 10.257031 6.0608594 10.707031 5.9433594 C 11.202031 5.8158594 11.728203 5.7519531 12.283203 5.7519531 L 12.28125 5.75 z M 12 16.130859 C 12.33875 16.130859 12.585938 16.233359 12.773438 16.443359 A 1.0675 1.0675 0 0 1 13.060547 17.189453 A 1.06875 1.06875 0 0 1 12.775391 17.9375 C 12.585391 18.1475 12.3375 18.25 12 18.25 C 11.66125 18.25 11.414062 18.1475 11.226562 17.9375 C 11.031563 17.7225 10.939453 17.479453 10.939453 17.189453 A 1.0675 1.0675 0 0 1 11.226562 16.443359 C 11.415313 16.233359 11.6625 16.130859 12 16.130859 z " />
</svg>

<svg height="24" width="24" xmlns="http://www.w3.org/2000/svg"><path style="fill:gray;stroke-width:1" d="M12 2C6.477 2 2 6.477 2 12s4.477 10 10 10 10-4.477 10-10S17.523 2 12 2zm.281 3.75c.659 0 1.19.094 1.592.271l.002.002h.004a2.701 2.701 0 0 1 .998.659 2.129 2.129 0 0 1 .5.9v.006c.104.331.154.647.154.951 0 .385-.073.725-.217 1.025a4.468 4.468 0 0 1-.548.84c-.22.265-.463.521-.73.764-.275.25-.525.512-.753.787v.002a4.066 4.066 0 0 0-.582.89 2.44 2.44 0 0 0-.24 1.096v.194c0 .025.006.045.006.07h-1.133a3.65 3.65 0 0 1-.059-.62c0-.36.063-.683.184-.972.137-.296.307-.568.512-.818l.002-.004a6.72 6.72 0 0 1 .658-.729h.002c.237-.236.463-.473.676-.71.217-.243.394-.499.529-.766.15-.278.226-.58.226-.904 0-.522-.173-.96-.513-1.288-.346-.346-.848-.513-1.48-.513-.753 0-1.486.199-2.204.562l-.375-1.039a6.03 6.03 0 0 1 1.215-.463 6.303 6.303 0 0 1 1.576-.191l-.002-.002zM12 16.13c.339 0 .586.103.773.313a1.067 1.067 0 0 1 .288.746 1.069 1.069 0 0 1-.286.748c-.19.21-.438.313-.775.313-.339 0-.586-.102-.773-.313a1.063 1.063 0 0 1-.288-.748 1.067 1.067 0 0 1 .288-.746c.188-.21.435-.312.773-.312z"/></svg>
